svg/white/strat.svg

<svg xmlns="http://www.w3.org/2000/svg" width="32" height="32" viewBox="0 0 32 32">
  <path fill="#FFF" fill-rule="evenodd" d="M16,32 C7.163444,32 0,24.836556 0,16 C0,7.163444 7.163444,0 16,0 C24.836556,0 32,7.163444 32,16 C32,24.836556 24.836556,32 16,32 Z M6.04707433,15.4536582 L6.03948775,13.7165537 L15.6809481,19.3756559 C15.9092763,19.5099009 16.1915445,19.5105218 16.4204527,19.3772825 L26.6320585,13.4334727 C26.9840818,13.2285725 27.1045317,12.7750498 26.9010909,12.4205012 C26.837499,12.3096756 26.7465037,12.2173184 26.636961,12.1524179 L16.4253623,6.10237409 C16.1939709,5.96528208 15.9068308,5.96591916 15.6760412,6.1040366 L5.25616776,12.3398749 C5.06444846,12.4546105 4.97196242,12.6733315 5.00747039,12.882242 C5.00260781,12.9140081 5.00008508,12.9465519 5.00008508,12.9796892 L5.00008508,15.4536582 C5.00008508,16.1006716 5.34252401,16.6986219 5.89859595,17.0225944 L15.6821158,22.7225605 C15.9116728,22.8563025 16.1949092,22.8553555 16.4235795,22.7200814 L25.8965861,17.1161513 L25.8965861,19.0172021 L16.0495283,24.8953653 L5.78748325,18.8622538 C5.53779096,18.7154584 5.21722172,18.8003248 5.07147181,19.0518082 C4.92572191,19.3032917 5.00998386,19.6261605 5.25967616,19.772956 L15.6796079,25.89889 C15.9104367,26.0345955 16.1961602,26.0336359 16.4260853,25.896383 L26.5827489,19.8334017 C26.8064214,19.6998812 26.9435753,19.4574296 26.9435753,19.1955567 L26.9435753,16.569246 C26.9435753,16.1597478 26.6139759,15.827784 26.2073943,15.827784 C26.076302,15.827784 25.9475875,15.8630399 25.8345511,15.9299087 L16.0495419,21.7184096 L6.42284426,16.1098094 C6.19028712,15.9743196 6.04707433,15.7242483 6.04707433,15.4536582 Z M16.0528756,18.3733047 L6.55511468,12.7891207 L16.0528931,7.10511594 L25.6466535,12.7891104 L16.0528756,18.3733047 Z"/>
</svg>

<svg xmlns="http://www.w3.org/2000/svg" width="32" height="32"><path fill="#FFF" fill-rule="evenodd" d="M16 32C7.163 32 0 24.837 0 16S7.163 0 16 0s16 7.163 16 16-7.163 16-16 16zM6.047 15.454l-.008-1.737 9.642 5.659c.228.134.51.135.74.001l10.211-5.944a.744.744 0 0 0 .005-1.28l-10.212-6.05a.732.732 0 0 0-.749.001L5.256 12.34a.529.529 0 0 0-.249.542.644.644 0 0 0-.007.098v2.474c0 .647.343 1.245.899 1.569l9.783 5.7c.23.133.513.132.742-.003l9.473-5.604v1.901l-9.847 5.878-10.263-6.033a.521.521 0 0 0-.716.19.53.53 0 0 0 .189.721l10.42 6.126c.23.136.516.135.746-.003l10.157-6.063a.743.743 0 0 0 .36-.637v-2.627a.739.739 0 0 0-1.108-.64l-9.785 5.79-9.627-5.61a.759.759 0 0 1-.376-.655zm10.006 2.92l-9.498-5.585 9.498-5.684 9.594 5.684-9.594 5.584z"/></svg>
